X:1
T:Que seanlas mugeres
T:Enrico Radesca di Foggia
T:Source : Canzonette a 2 voci---Libro III---Venetia---G. Vincenti---1616. Editor : André Vierendeels (07/04/14).        
T:Notes : Original clefs : C1, F4 Continuo slightly adapted Dotted brackets indicate black notes The score mentions a dedication to Illustriss. Sig. Conte di Rovigliasco (prob. Revigliasco in Piemonte) Though included in a volume dedicated exclusively to works by Radesca, this works mentions "incerto" for this piece.
T:Que sean las mugeres
C:Enrico Radesca di Foggio
%%score [ 1 2 ] 3
L:1/8
Q:1/4=96
M:4/4
K:C
V:1 treble nm="Soprano" snm="S"
V:2 bass nm="Bass" snm="B"
V:3 bass nm="MusicXML Part"
V:1
 G8 | A4 A4 | z2 A2 AAAA | A2 B2 c2 d2 | B2 c4 B2 |[M:2/4] c4 :: E4 |[M:4/4] F3 A ^G3 G | A4 e4 | %9
w: Que|se- an,|que se- an las mu-|ge- res en- con-|stan- * *|tes,|es|vi- cio na- tu-|ral, es|
 d3 c B3 B | A4 z2 e2 | f4 c4 | e8 | e2 EE G4 | z2 BB d4 | z2 AA c2 d2 | B2 c4 B2 | c8 | %18
w: vi- cio na- tu-|ral, ya|by- vo|cier-|to que no tien,|que no tien|que ni tien el|mun- do co-|sa,|
 z AAA A2 c2 | d3 c B4 | A8 ||[M:3/4] z6 | z6 | A4 A2 | G4 G2 | F4 F2 | E2 F2 G2 | c2 B4 | %28
w: mas va- ri- a- ble'y|men- ti- ro-|sa,|||pues de'n|gan- no'y|de mu-|dan- za'y de|mu- dan-|
[M:4/4] c8 | B2 B2 d4 | c2 c2 B4 | z4 e4 | dd d4 c2 | B8 | A8 |] %35
w: za,|lie- nas son,-|lie- nas son|ay|cru- el en con|stan-|za.|
V:2
 C,8 | F,4 F,4 | z2 F,2 F,F,F,F, | F,2 G,2 A,2 F,2 | G,8 |[M:2/4] C,4 :: C,4 | %7
w: Que|se- an,|que se- an las mu-|ge- res en- con-|stan-|tes,|es|
[M:4/4] D,3 D, E,3 E, | A,,4 C,4 | D,3 D, E,3 E, | A,,4 A,4 | F,4 A,4 | A,8 | C,4 z2 E,E, | %14
w: vi- cio na- tu-|ral, es|vi- cio na- tu-|ral, ya|by- vo|cier-|to que no|
 G,4 z2 D,D, | F,6 F,2 | G,2 A,2 G,4 | C,4 z F,F,F, | F,6 E,2 | D,2 D,2 E,4 | A,,8 || %21
w: tien, que no|tien el|mun- do co-|sa, mas va- ri-|a- ble'y|men- ti- ro-|sa,|
[M:3/4] A,4 A,2 | G,4 G,2 | F,4 F,2 | E,4 E,2 | D,4 D,2 | C,2 D,2 E,2 | F,2 G,4 | %28
w: pues de'n|gan- no'y|de mu-|dan- za,|de mu-|dan- za'y de|mu- dan-|
[M:4/4] C,4 C,2 C,2 | G,8 | A,2 A,,2 E,4 | C,8 | D,D, D,4 D,2 | E,8 | A,,8 |] %35
w: za, lie- nas|son,|lie- nas son,|ay|cru- el en- con-|stan-|za.|
V:3
 C,8 | F,8 | F,8 | F,2 G,2 A,2 F,2 | G,8 |[M:2/4] C,4 :: C,4 |[M:4/4] D,4 E,4 | A,,4 C,4 | %9
 D,4 E,4 | A,,4 A,4 | F,4 A,4 | A,4 A,,4 | C,8 | G,4 D,4 | F,6 D,2 | G,2 A,2 G,4 | C,4 F,4 | %18
 F,6 C,2 | D,4 E,4 | A,,8 ||[M:3/4] A,6 | G,6 | F,6 | E,6 | D,6 | C,2 D,2 E,2 | F,2 G,4 | %28
[M:4/4] C,4 C,4 | G,8 | A,4 E,4 | C,8 | D,8 | E,8 | A,,8 |] %35

